templates/main/source/images/payment_online.svg

<?xml version="1.0" encoding="utf-8"?>
<svg width="29px" height="24px" viewbox="0 0 29 24" version="1.1" xmlns:xlink="http://www.w3.org/1999/xlink" xmlns="http://www.w3.org/2000/svg">
  <path d="M18.3414 0.754938C17.1873 -0.0241069 15.6197 0.159999 14.6779 1.19831C13.5108 0.583695 12.0311 0.855566 11.1706 1.91758L0.62764 14.9313C-0.350391 16.1384 -0.165528 17.9174 1.04352 18.8969L6.56947 23.374C7.73539 24.3187 9.43622 24.1745 10.4344 23.0744C11.4861 23.6312 12.7938 23.4635 13.6709 22.6454C14.8676 23.4559 16.5112 23.2262 17.4368 22.0837L27.9797 9.06997C28.9577 7.86294 28.7731 6.08392 27.5641 5.10438L22.0379 0.627325C20.9348 -0.266471 19.3525 -0.188541 18.3414 0.754938ZM26.7702 6.08417C27.4385 6.62539 27.5414 7.60796 26.9999 8.27629L16.457 21.2901C15.9758 21.8837 15.143 22.0303 14.4956 21.6714C14.4144 21.6315 14.3372 21.5786 14.2646 21.5198L13.9884 21.2959L13.4984 20.8991L12.7146 20.2641L12.2248 19.8671L11.7348 19.4702L8.73864 17.0428C8.07233 16.503 7.96892 15.5169 8.50863 14.8506L16.8706 4.52961L17.2675 4.03959L17.6642 3.54956L18.5139 2.50142L18.9106 2.0114L19.0518 1.83688C19.1409 1.72717 19.2402 1.63259 19.3507 1.55643C19.9053 1.15215 20.6856 1.15468 21.2442 1.60712L26.7702 6.08417ZM10.7716 21.7929L10.7071 21.7405L10.217 21.3435L5.24567 17.3159C4.57734 16.7744 4.47444 15.7918 5.01415 15.1258L14.8953 2.92915L15.2923 2.43913L15.5574 2.11203C15.6018 2.05705 15.6502 2.00534 15.7009 1.95894C16.1916 1.49313 16.9301 1.40334 17.5165 1.72893L16.6847 2.75589L16.2877 3.24566L15.8908 3.73569L7.52884 14.0567C6.5508 15.264 6.73768 17.0448 7.94471 18.0226L10.9411 20.45L11.4309 20.8469L11.9209 21.2439L12.6616 21.8439C12.2548 22.1377 11.7305 22.2159 11.2604 22.059C11.0879 22.0035 10.9207 21.9135 10.7716 21.7929ZM1.83719 17.9171C1.16911 17.3759 1.06596 16.3933 1.60718 15.725L12.1506 2.7115C12.5696 2.19399 13.2538 2.01468 13.8505 2.21568L4.03435 14.3319C3.05632 15.5389 3.2427 17.3161 4.45175 18.2957L9.41151 22.314C8.85213 22.8441 7.97472 22.8895 7.36339 22.3942L1.83719 17.9171ZM19.8995 8.27873C19.1268 14.4337 15.0439 15.0667 15.0439 15.0667C22.0798 15.6699 21.9873 8.59877 21.9873 8.59877L24.0008 9.15411L21.7797 3.95703L17.4688 8.44644L19.8995 8.27873ZM16.0046 11.348C16.4772 11.7308 16.4573 12.294 16.1317 12.696C15.8063 13.0975 15.2593 13.2342 14.7867 12.8511L13.7512 12.012C13.278 11.629 13.2985 11.0658 13.6238 10.6643C13.9494 10.2623 14.4959 10.1258 14.9688 10.5089L16.0046 11.348ZM15.1577 12.4002C15.3622 12.5659 15.5816 12.5427 15.7249 12.3661C15.8679 12.1893 15.8449 11.9699 15.6407 11.8042L14.5981 10.9599C14.3938 10.7942 14.1741 10.8171 14.0309 10.9939C13.8879 11.1705 13.9108 11.3901 14.1153 11.5556L15.1577 12.4002ZM14.6073 14.5778C14.9329 14.1761 14.9528 13.6129 14.4802 13.2298L13.4444 12.3908C12.9715 12.0077 12.425 12.1441 12.0994 12.5461C11.7741 12.9476 11.7536 13.5108 12.2268 13.8941L13.2623 14.7332C13.7349 15.116 14.2819 14.9793 14.6073 14.5778ZM14.2005 14.2482C14.0572 14.4245 13.8378 14.4477 13.6333 14.282L12.5909 13.4374C12.3864 13.272 12.3635 13.0525 12.5064 12.8757C12.6497 12.699 12.8694 12.676 13.0736 12.8417L14.1162 13.6861C14.3205 13.8518 14.3435 14.0714 14.2005 14.2482ZM11.4913 14.1219C11.4787 14.1837 11.4497 14.2263 11.367 14.3282L10.7748 15.0593L11.2976 15.4828C11.2913 15.3599 11.341 15.1821 11.48 15.0106C11.6439 14.8081 11.8376 14.7037 12.0161 14.6848C12.3642 14.6485 12.6217 14.8086 12.8537 14.9963C13.1344 15.2238 13.2956 15.4144 13.3299 15.7435C13.3505 15.941 13.3021 16.1887 13.0862 16.4552C12.9021 16.6822 12.7178 16.8108 12.4769 16.8567C12.3024 16.8878 12.0999 16.858 11.9491 16.7362C11.8764 16.6772 11.8394 16.6098 11.8298 16.5362C11.8209 16.4658 11.8464 16.3917 11.8969 16.3294C11.9516 16.2621 11.9965 16.2353 12.0557 16.2257C12.1165 16.2149 12.1594 16.2184 12.2643 16.2515C12.4477 16.3085 12.5609 16.2681 12.6774 16.1241C12.7546 16.029 12.7881 15.9415 12.7773 15.8411C12.7627 15.6971 12.6451 15.5761 12.4875 15.4485C12.205 15.2197 11.9816 15.1703 11.799 15.3958C11.6981 15.5203 11.6684 15.6308 11.6875 15.7559C11.6966 15.8086 11.6984 15.856 11.6911 15.9077C11.6832 15.9559 11.6656 15.9957 11.6207 16.0512C11.57 16.1135 11.5155 16.1526 11.4338 16.1612C11.3524 16.1695 11.2664 16.1344 11.1884 16.0711L10.3088 15.3584C10.2429 15.3052 10.1597 15.2379 10.1479 15.1251C10.136 15.0125 10.2032 14.9294 10.2563 14.8637L10.2568 14.8631L10.9584 13.9971C11.0411 13.8952 11.0767 13.8581 11.1345 13.8329C11.2129 13.7993 11.3077 13.8099 11.3927 13.8785C11.4777 13.9474 11.5075 14.0379 11.4913 14.1219Z" id="payment_online" fill="#A6A6A6" fill-rule="evenodd" stroke="none" />
</svg>

<svg width="29" height="24" xmlns:xlink="http://www.w3.org/1999/xlink" xmlns="http://www.w3.org/2000/svg"><path d="M18.341.755a2.824 2.824 0 00-3.663.443 2.827 2.827 0 00-3.507.72L.628 14.93a2.822 2.822 0 00.416 3.966l5.525 4.477c1.166.945 2.867.8 3.865-.3 1.052.557 2.36.39 3.237-.429a2.82 2.82 0 003.766-.561L27.98 9.07a2.822 2.822 0 00-.416-3.966L22.038.627a2.824 2.824 0 00-3.697.128zm8.43 5.33A1.56 1.56 0 0127 8.275L16.457 21.29a1.558 1.558 0 01-1.961.381 1.244 1.244 0 01-.231-.151l-.277-.224-.49-.397-.783-.635-.49-.397-.49-.397-2.996-2.427a1.563 1.563 0 01-.23-2.192L16.87 4.53l.396-.49.397-.49.85-1.049.397-.49.14-.174c.09-.11.19-.204.3-.28a1.557 1.557 0 011.893.05l5.526 4.477zm-16 15.708l-.064-.052-.49-.398-4.971-4.027a1.559 1.559 0 01-.232-2.19l9.881-12.197.397-.49.265-.327a1.55 1.55 0 011.96-.383l-.832 1.027-.397.49-.397.49-8.362 10.32a2.824 2.824 0 00.416 3.967l2.996 2.427.49.397.49.397.74.6a1.557 1.557 0 01-1.89-.051zm-8.934-3.876a1.56 1.56 0 01-.23-2.192L12.151 2.711a1.552 1.552 0 011.7-.495L4.034 14.332a2.82 2.82 0 00.418 3.964l4.96 4.018c-.56.53-1.437.576-2.049.08l-5.526-4.477zM19.9 8.28c-.773 6.155-4.856 6.788-4.856 6.788 7.036.603 6.943-6.468 6.943-6.468l2.014.555-2.221-5.197-4.311 4.49 2.43-.168zm-3.895 3.069c.472.383.452.946.127 1.348-.326.402-.873.538-1.345.155l-1.036-.839c-.473-.383-.452-.946-.127-1.348.325-.402.872-.538 1.345-.155l1.036.839zm-.847 1.052c.204.166.424.143.567-.034.143-.177.12-.396-.084-.562l-1.043-.844c-.204-.166-.424-.143-.567.034-.143.177-.12.396.084.562l1.043.844zm-.55 2.178c.325-.402.345-.965-.128-1.348l-1.036-.84c-.473-.382-1.019-.246-1.345.156-.325.402-.345.965.128 1.348l1.035.84c.473.382 1.02.245 1.345-.156zm-.408-.33c-.143.177-.362.2-.567.034l-1.042-.845c-.205-.165-.227-.384-.085-.561.144-.177.363-.2.568-.034l1.042.844c.204.166.228.385.085.562zm-2.709-.126c-.012.062-.041.104-.124.206l-.592.731.523.424a.732.732 0 01.182-.472c.164-.203.358-.307.536-.326.348-.037.606.124.838.311.28.228.442.418.476.747.02.198-.028.446-.244.712-.184.227-.368.356-.61.402a.662.662 0 01-.527-.12.304.304 0 01-.12-.2.278.278 0 01.068-.208c.055-.067.1-.094.159-.103.06-.011.103-.008.208.026.184.056.297.016.413-.128.078-.095.111-.182.1-.283-.014-.144-.132-.265-.29-.393-.282-.228-.505-.278-.688-.052-.1.124-.13.235-.111.36.009.053.01.1.003.152a.286.286 0 01-.07.143.264.264 0 01-.187.11.345.345 0 01-.246-.09l-.88-.713c-.065-.053-.148-.12-.16-.233-.012-.113.055-.196.108-.261l.702-.867c.083-.102.119-.139.176-.164.079-.034.174-.023.259.046a.247.247 0 01.098.243z" id="payment_online" fill="#A6A6A6" fill-rule="evenodd" stroke="none"/></svg>
